!!!!SEGMENT: pl-wtm--r-1633_stefani-jozef--do-ciebie.krn
!!!cenid: 18xx:2369
!!!COM: Stefani, Józef
!!!COM-rismid: pe30024097
!!!CDT: 1800/04/16-1876/03/19
!!!CNT: Polish
!!!OTL: Do Ciebie
!!!PDT:
!!!AGN:
!!!SMS-siglum: PL-Wtm
!!!SMS-shelfmark: R 1633
!!!SMS-shelfwork: W
!!!SMS-variant:
!!!SMS-altvar:
!!!NIFC-rismid: 1001115803
!!!URL-scan: http://repozytorium.nifc.pl/skany/pl-wtm-nut--r1633
!!!ONB-nifc:
!!!OMD: Allegro marciale.
!!!key:
**kern	**text	**dynam	**kern	**text	**kern	**text	**dynam
*part3	*part3	*part3	*part2	*part2	*part1	*part1	*part1
*staff3	*staff3	*	*staff2	*staff2	*staff1	*staff1	*
*Iempty	*	*	*Itenor	*	*Itenor	*	*
*I"Baſso	*	*	*I"IIo Tenore	*	*I"Io Tenore	*	*
*clefF4	*	*	*clefC4	*	*clefC4	*	*
*ok[c#f#]	*	*	*ok[c#f#]	*	*ok[c#f#]	*	*
*k[f#c#]	*	*	*k[f#c#]	*	*k[f#c#]	*	*
*D:	*	*	*D:	*	*D:	*	*
*M4/4	*	*	*M4/4	*	*M4/4	*	*
*met(c)	*	*	*met(c)	*	*met(c)	*	*
=1	=1	=1	=1	=1	=1	=1	=1
*all\right	*	*	*all\right	*	*all\right	*	*
!	!	!	!	!	!	!	!LO:DY:a:rj
4D\	.	.	4F#/	.	4d\	Ten	f
8D\	.	.	8F#/	.	8A\	kto	.
8D\	.	.	8F#/	.	8A\	naj-	.
4D\	.	.	4D/	.	4F#/	-wyż-	.
4D\	.	.	4F#/	.	4A\	-sze	.
=2	=2	=2	=2	=2	=2	=2	=2
4D\	.	.	4F#/	.	4d\	po-	.
8D\	.	.	8F#/	.	8d\	-iął	.
8C#\	.	.	8A\	.	8e\	za-	.
4D\	.	.	4d\	.	4f#\	-da-	.
4F#\	.	.	4A\	.	4d\	-nie,	.
!!LO:LB:g=original
=3	=3	=3	=3	=3	=3	=3	=3
4A\	.	.	4c#\	.	4e\	Stał	.
8A\	.	.	8c#\	.	8e\	się	.
8E#X\	.	.	8B\	.	8d\	ma-	.
4F#\	.	.	4A\	.	4c#\	-lucz-	.
4G\	.	.	4G/	.	4B\	-kim,	.
=4	=4	=4	=4	=4	=4	=4	=4
4F#\	.	.	4A/	.	4A\	ja-	.
8F#\	.	.	8A/	.	8A\	-ko	.
8E\	.	.	8G/	.	8c#\	dzie-	.
4D\	.	.	4F#/	.	4d\	-ci-	.
8D\	.	.	8F#/	.	8A\	-na,	.
8r	.	.	8r	.	8r	.	.
=5	=5	=5	=5	=5	=5	=5	=5
4D\	.	.	4F#/	.	4d\	A	.
8D\	.	.	8F#/	.	8A\	chcąc	.
8D\	.	.	8F#/	.	8A\	za-	.
4D\	.	.	4D/	.	4F#/	-szcze-	.
4D\	.	.	4F#/	.	4A\	-pić	.
!!LO:LB:g=original
=6	=6	=6	=6	=6	=6	=6	=6
4D\	.	.	4F#/	.	4d\	brat-	.
8D\	.	.	8F#/	.	8d\	-nie	.
8C#\	.	.	8A/	.	8e\	Ko-	.
4D\	.	.	4d\	.	4f#\	-cha-	.
4F#\	.	.	4A\	.	4d\	-nie	.
=7	=7	=7	=7	=7	=7	=7	=7
4E\	.	.	4A\	.	4c#\	Z_za-	.
8D#X\	.	.	8B#X\	.	8f#\	-par-	.
8E\	.	.	8c#\	.	8e\	-ciem	.
4E\	.	.	4c#\	.	4e\	sie-	.
4E\	.	.	4A\	.	4c#\	-bie	.
=8	=8	=8	=8	=8	=8	=8	=8
8E\	.	.	8G#X/	.	8B\	dzie-	.
8E\	.	.	8A\	.	8c#\	-ło	.
8E\	.	.	8B\	.	8d\	roz-	.
8E\	.	.	8G#/	.	8e\	-po-	.
4AA/	.	.	4A\	.	4c#\	-czy-	.
4AA/	.	.	4A\	.	4c#\	-na.	.
!!LO:LB:g=original
=9	=9	=9	=9	=9	=9	=9	=9
4AA/	.	.	4A\	.	4c#\	Z_za-	.
8D/	.	.	8A\	.	8f#\	-par-	.
8C#/	.	.	8A\	.	8e\	-ciem	.
4C#/	.	.	4A\	.	4e\	sie-	.
4AA/	.	.	4A\	.	4c#\	-bie	.
=10	=10	=10	=10	=10	=10	=10	=10
8E\	.	.	8G#X/	.	8B\	dzie-	.
8E\	.	.	8A\	.	8c#\	-ło	.
8E\	.	.	8B\	.	8d\	roz-	.
8E\	.	.	8G#/	.	8e\	-po-	.
4A\	.	.	4A\	.	4A\	-czy-	.
4A\	.	.	4A\	.	4A\	-na,	.
=11	=11	=11	=11	=11	=11	=11	=11
4E\	.	.	4G#X/	.	4B\	Kto	.
8E\	.	.	8G#/	.	8B\	od	.
8E\	.	.	8G#/	.	8e\	mło-	.
4BB/	.	.	4F#/	.	4e\	-doś-	.
4BB/	.	.	4F#/	.	4d#X\	-ci	.
!!LO:PB:g=original
=12	=12	=12	=12	=12	=12	=12	=12
!	!	!	!	!	!	!	!LO:DY:a
8AA/L	.	.	4A/	.	4c#\	aż	>
8C#/J	.	.	.	.	.	.	.
8E\	.	.	8G#X/	.	8B\	do	.
8E\	.	.	8F#/	.	8A#X\	si-	.
4E\	.	.	4G#/	.	4B\	-wiz-	]
4E\	.	.	4E/	.	4G#X/	-ny,	.
=13	=13	=13	=13	=13	=13	=13	=13
!	!	!LO:DY:a:rj	!	!	!	!	!LO:DY:a:rj
4BB/	.	p	4F#/	.	4A\	U-	p
8BB/	.	.	8F#/	.	8A/	-czył	.
8BB/	.	.	8E/	.	8G#X/	mi-	.
4BB/	.	.	4D#X/	.	4F#/	-ło-	.
4BB/	.	.	4F#/	.	4d#X\	-ści	.
=14	=14	=14	=14	=14	=14	=14	=14
4E\	.	.	4G#X/	.	4e\	bra-	.
8E\	.	.	8G#/	.	8e\	-ci	.
8D#X\	.	.	8B\	.	8f#\	oj-	.
4E\	.	.	4B\	.	4g#X\	-czyz-	.
4G#X\	.	.	4B\	.	4e\	-ny,	.
!!LO:LB:g=original
=15	=15	=15	=15	=15	=15	=15	=15
4E\	.	.	4G#X/	.	4B\	A	.
8E\	.	.	8G#/	.	8B\	nie	.
8E\	.	.	8A/	.	8c#\	u-	.
4E\	.	.	4B\	.	4d\	-sta-	.
4E\	.	.	4G#/	.	4B\	-iąc	.
=16	=16	=16	=16	=16	=16	=16	=16
4D\	.	.	4A\	.	4f#\	w_cięz-	.
8C#/	.	.	8A\	.	8e\	-kiej	.
8BB#X/	.	.	8A\	.	8d#X\	ro-	.
4C#/	.	.	4A\	.	4e\	-bo-	.
4AA/	.	.	4A\	.	4c#\	-cie,	.
=17	=17	=17	=17	=17	=17	=17	=17
(8BB/L	.	.	4F#/	.	(>8B\L	Za-	.
8GG/J)	.	.	.	.	8d\J)	.	.
8C#/	.	.	8E/	.	8c#\	-ro-	.
8D/	.	.	8F#/	.	8B\	-dy	.
4E\	.	.	4A\	.	4c#\	chwas-	.
4E\	.	.	4A\	.	4c#\	-tów	.
!!LO:LB:g=original
=18	=18	=18	=18	=18	=18	=18	=18
4E\	.	.	(8A/L	.	4B\	wy-	.
.	.	.	8G#X/J)	.	.	.	.
8E\	.	.	8F#/	.	8B\	-ry-	.
8E\	.	.	8G#/	.	8e\	-wał	.
4E;>\	.	.	4G#;>/	.	4B;>\	w_po-	.
!LO:TX:t=P:problem=fermata po nucie	!	!	!LO:TX:t=P:problem=fermata po nucie	!	!LO:TX:t=P:problem=fermata po nucie	!	!
8A;\	.	.	8A;/	.	8A;\	-cie.	.
16A\	.	.	16A/	.	16A\	Te-	.
16A\	.	.	16A/	.	16A\	-go	.
=19||	=19||	=19||	=19||	=19||	=19||	=19||	=19||
*M6/8	*	*	*M6/8	*	*M6/8	*	*
4G\	.	.	4A/	.	4c#\	czcią	.
8A\	.	.	8A/	.	8A\	naj-	.
8F#\	.	.	8A/	.	8d\	-wię-	.
8A\	.	.	8A/	.	8A\	-kszą	.
8A\	.	.	8A/	.	8A\	o-	.
=20	=20	=20	=20	=20	=20	=20	=20
8C#/	.	.	8A/	.	8e\	-to-	.
8A\	.	.	8A/	.	8A\	-czo	.
8A\	.	.	8A/	.	8A\	Oj-	.
4D\	.	.	4A/	.	4f#\	-co-	.
8D\	.	.	8F#/	.	8d\	-wie,	.
!!LO:LB:g=original
=21	=21	=21	=21	=21	=21	=21	=21
!	!	!	!	!	!	!	!LO:HP:a
16D\	.	.	16G/	.	16B\	Te-	<
16D\	.	.	16G/	.	16B\	-go	.
8D\	.	.	8G/	.	8B\	u-	.
8E\	.	.	8G/	.	8c#\	-ca-	.
!	!	!	!	!	!	!	!LO:HP:a
4D\	.	.	4F#/	.	4d\	-łu-	[ >
8D\	.	.	8F#/	.	8A\	-ją	]]
=22	=22	=22	=22	=22	=22	=22	=22
!	!	!	!	!	!	!	!LO:HP:a
16D\	.	.	16G/	.	16B\	dro-	<
16D\	.	.	16G/	.	16B\	-bnej	.
8D\	.	.	8G/	.	8B\	dziat-	.
8E\	.	.	8G/	.	8c#\	-wy	.
!	!	!	!	!	!	!	!LO:HP:a
8D\	.	.	8F#/	.	8d\	kro-	[ >
8D\	.	.	8F#/	.	8A\	-cie,	.
16D\	.	.	16F#/	.	16A\	Te-	]
!	!	!	!LO:TX:a:i:t=V&colon;S&colon;	!	!	!	!
16D\	.	.	16F#/	.	16A\	-go	.
!!LO:PB:g=original
=23	=23	=23	=23	=23	=23	=23	=23
!	!	!	!	!	!	!	!LO:DY:a:rj
4D\	.	.	4A/	.	4f#\	na-	f
8F#\	.	.	8A/	.	8d\	-ród	.
8E\	.	.	8B\	.	8g\	pol-	.
8.G\	.	.	8.B\	.	8.B\	-ski	.
16E\	.	.	16G/	.	16e\	u-	.
=24	=24	=24	=24	=24	=24	=24	=24
16F#\	.	.	16A/	.	16d\	-wie-	.
16F#\	.	.	16A/	.	16A\	-czni	.
(>8G\L	.	.	4G/	.	(>8B\L	w_swej	.
8E\J)	.	.	.	.	8c#\J)	.	.
8AA#X/	.	.	8G/	.	8e\	mo-	.
8BB/	.	.	8F#/	.	8d\	-wie!	.
16An\	.	.	16B\	.	16d#X\	Te-	.
16A\	.	.	16B\	.	16d#\	-go	.
!!LO:LB:g=original
=25	=25	=25	=25	=25	=25	=25	=25
4G\	.	.	4B\	.	4e\	na-	.
8D#X\	.	.	8B\	.	8f#\	-ród	.
8E\	.	.	8B\	.	8g\	Pol-	.
8.G\	.	.	8.B\	.	8.B\	-ski	.
16GG/	.	.	16B\	.	16e\	u-	.
=26	=26	=26	=26	=26	=26	=26	=26
16AA/	.	.	16A/	.	16f#\	-wiecz-	.
16AA/	.	.	16G/	.	16e\	-ni	.
4AA/	.	.	(<8F#/L	.	(>8d\L	w_swej	.
.	.	.	8E/J)	.	8c#\J)	.	.
8AA/	.	.	8G/	.	8e\	mo-	.
8D/	.	.	8F#/	.	8d\	-wie!	.
8r	.	.	8A/	u-	8r	.	.
=27	=27	=27	=27	=27	=27	=27	=27
8r	.	.	8d\	-wiecz-	4r	.	.
8r	.	.	8F#/	-ni	.	.	.
!LO:N:vis=8	!	!	!	!	!	!	!
16F#\	u-	.	8r	.	8r	.	.
!LO:N:vis=8	!	!	!	!	!	!	!
16B\	-wiecz-	.	.	.	.	.	.
8.E\	-ni	.	8.r	.	8.r	.	.
16E\	u-	.	16B\	u-	16g\	u-	.
16F#\	-wiecz-	.	16A\	-wiecz-	16f#\	-wiecz-	.
16G\	-ni	.	16B\	-ni	16e\	-ni	.
!!LO:LB:g=original
=28	=28	=28	=28	=28	=28	=28	=28
8F#\L	w_swej	.	(<8A/	.	(>(>16d\LL	w_swej	.
.	.	.	.	.	16A\JJ)	.	.
8G\	.	.	4G/)	.	8B\L	.	.
8E\J	.	.	.	.	8c#\J)	.	.
(<8.AA;</L	mo-	.	(<8.E;>/L	.	(>8.c#;>\L	mo-	.
16D/Jk)	.	.	16F#/Jk)	.	16d\Jk)	.	.
8D\	-wie!	.	8F#/	.	8d\	-wie!	.
!!LO:PB:g=original
==	==	==	==	==	==	==	==
*-	*-	*-	*-	*-	*-	*-	*-
!!!system-decoration: {(s1,s2,s3)}
!!!RDF**kern: < = below
!!!RDF**kern: > = above
!!!AIN: 1 empty 2 tenor
!!!ENC: Marta Chmielewska
!!!END: 2021-06-09
!!!ENC: Andrzej Gręziak
!!!END: 2021-06-06
